logos/jfrog.svg

<?xml version="1.0" encoding="UTF-8"?>
<svg width="256px" height="248px" viewBox="0 0 256 248" version="1.1" xmlns="http://www.w3.org/2000/svg" xmlns:xlink="http://www.w3.org/1999/xlink" preserveAspectRatio="xMidYMid">
    <g>
        <path d="M113.668304,162.397095 L100.140911,166.161239 C101.317206,169.572494 102.258242,175.689228 102.258242,183.923293 L102.258242,224.387841 L117.432448,224.387841 L117.432448,181.570703 C120.255556,178.159448 123.313923,176.512635 126.607549,176.512635 C128.254362,176.512635 129.548287,176.865523 130.959841,177.68893 L135.076873,163.691019 C132.724283,162.632354 131.665618,162.397095 129.430657,162.397095 C127.783844,162.397095 125.784143,162.749983 124.490218,163.338131 C121.66711,164.749685 118.138225,167.925681 115.903265,170.984048 C115.903265,167.572793 115.079858,164.867314 113.668304,162.397095 Z M61.4408057,142.400079 L59.7939927,142.400079 L59.7939927,224.270212 L75.5563458,224.270212 L75.5563458,188.040326 L95.4357314,188.040326 L95.4357314,174.512933 L75.5563458,174.512933 L75.5563458,155.692213 L100.37617,155.692213 L101.317206,148.516813 C86.3782599,147.458148 72.8508673,145.105558 61.4408057,142.400079 Z M24.622772,235.209755 L31.915801,243.67908 C38.9735711,240.855972 47.7957836,234.503978 50.1483736,224.387841 C50.9717802,221.094215 51.2070392,218.976884 51.2070392,208.2726 L51.2070392,142.517709 L35.3270566,142.517709 L35.3270566,210.037042 C35.3270566,218.859255 34.974168,222.152881 33.797873,225.211248 C32.2686895,228.622503 28.622175,232.621906 24.622772,235.209755 Z M167.777874,193.686542 C167.777874,208.037341 164.954766,214.154075 158.485144,214.154075 C155.544406,214.154075 152.25078,212.507262 150.839226,209.213636 C149.662931,206.155269 148.957154,200.979571 148.957154,193.921801 C148.957154,187.922696 149.545302,183.688034 150.486338,180.394408 C151.662633,176.630264 154.60337,174.277674 158.249885,174.277674 C160.955363,174.277674 163.307953,175.453969 164.719507,177.453671 C166.836838,180.276779 167.777874,185.570106 167.777874,193.686542 Z M177.070605,217.212442 C182.011044,211.330967 184.246005,204.155567 184.246005,193.804171 C184.246005,184.040923 182.246303,177.336041 177.658752,171.689825 C172.718313,165.573091 166.36632,162.632354 158.132255,162.632354 C142.605161,162.632354 132.253765,175.21871 132.253765,194.274689 C132.253765,213.330668 142.487532,225.564136 158.132255,225.564136 C166.954468,225.681766 172.718313,222.38814 177.070605,217.212442 Z M220.123002,183.335146 C220.123002,188.863732 216.829376,191.922099 210.947901,191.922099 C205.654574,191.922099 202.125689,189.45188 202.125689,183.335146 C202.125689,177.68893 205.419315,174.395304 211.065531,174.395304 C216.711747,174.395304 220.123002,177.68893 220.123002,183.335146 Z M246.824899,170.395901 L240.590535,160.397393 C237.06165,163.691019 232.826988,165.573091 228.709956,165.573091 C226.827884,165.573091 225.769218,165.337832 221.652186,164.279167 C217.535153,163.102872 214.594416,162.749983 211.30079,162.749983 C196.597102,162.749983 187.069113,170.748789 187.069113,183.217516 C187.069113,192.157358 191.068516,197.803574 199.42021,200.038535 C196.008955,200.861941 192.36244,202.626384 190.715627,204.626085 C189.539332,206.037639 188.951185,207.919711 188.951185,210.154672 C188.951185,212.036744 189.421703,213.683557 190.12748,215.095111 C190.950886,216.389035 192.009552,217.447701 193.421106,218.035848 C196.126584,219.094514 200.478876,219.800291 207.183757,219.91792 C210.712642,219.91792 212.829973,220.03555 213.53575,220.03555 C217.652783,220.270809 219.770114,220.976586 221.416927,221.799992 C222.94611,222.741028 224.122405,224.858359 224.122405,227.210949 C224.122405,229.563539 222.710851,231.916129 220.475891,233.327683 C218.476189,234.739237 215.182563,235.327385 210.947901,235.327385 C204.007761,235.327385 200.125987,232.739536 200.125987,227.916726 C200.125987,225.799395 200.361246,225.328877 200.831764,224.034953 L186.951483,224.034953 C186.363336,225.211248 185.657559,226.858061 185.657559,230.151687 C185.657559,234.268719 187.186742,237.797605 190.362739,240.855972 C195.538437,245.91404 204.007761,247.325594 212.124196,247.325594 C221.064038,247.325594 229.768621,245.208263 234.82669,239.562047 C238.002686,236.033162 239.41424,232.151388 239.41424,227.09332 C239.41424,221.682363 237.885057,217.56533 234.473801,214.154075 C230.474398,210.272301 225.886848,208.860747 217.064635,208.743118 L208.9482,208.625488 C207.419016,208.625488 206.47798,208.037341 206.47798,207.213934 C206.47798,205.567121 208.595311,204.155567 212.477085,202.273495 C213.65338,202.391125 214.006268,202.391125 214.712045,202.391125 C226.945513,202.391125 235.885355,194.862837 235.885355,184.393811 C235.885355,180.394408 234.70906,177.336041 232.4741,174.512933 C234.356172,174.748192 234.944319,174.865822 236.355873,174.865822 C240.355276,174.865822 243.531273,173.571897 246.824899,170.395901 Z M57.4414027,71.2342314 C38.6206826,75.8217819 25.799067,84.8792535 25.799067,95.2306496 C25.799067,101.700272 30.739506,107.581747 38.8559416,112.169298 C36.3857221,108.287524 35.0917976,104.052862 35.0917976,99.8182001 C35.2094271,89.1139155 43.5611216,79.115408 57.4414027,71.2342314 Z M256,111.816409 C256,104.993898 251.765338,98.7595346 244.707568,93.5838366 C245.295715,95.7011676 245.766233,97.8184986 245.766233,99.9358296 C245.766233,119.344697 218.593819,136.048086 180.011343,142.988227 C184.363634,143.458745 188.833555,143.694004 193.538735,143.694004 C228.004179,143.576374 256,129.343205 256,111.816409 Z M233.768024,101.229754 C233.768024,94.0543546 227.65129,87.4671025 217.182265,82.0561455 C219.652484,84.996883 220.946409,88.1728795 220.946409,91.4665055 C220.946409,108.758042 184.246005,122.755953 138.841017,122.755953 C93.5536594,122.755953 56.7356257,108.758042 56.7356257,91.4665055 C56.7356257,89.231545 57.3237732,87.114214 58.5000682,85.1145125 C51.2070392,89.937322 47.0900066,95.4659086 47.0900066,101.347384 C47.0900066,120.050474 88.8484794,135.22468 140.370201,135.22468 C191.891922,135.22468 233.768024,119.815215 233.768024,101.229754 Z M193.068217,100.288718 C174.012238,112.522186 115.432747,117.227366 90.2600334,101.465013 C70.4982773,89.1139155 77.3207883,69.4697889 20.7409985,26.4173916 C13.3303399,20.7711756 22.1525525,14.772071 27.681139,18.6538446 C33.2097255,22.5356181 28.151657,23.4766541 39.3264596,34.6514567 C61.9113237,57.2363208 61.6760647,36.8864172 65.2049497,44.6499642 C72.7332378,60.7652058 89.2013679,76.998077 89.2013679,76.998077 C105.787128,87.819991 118.961632,90.172581 143.428568,73.5868214 C158.955662,63.1177959 152.603669,90.2902105 190.597998,70.6460839 C204.478279,63.4706844 203.890131,68.2934939 218.005671,48.6493673 C223.887146,40.5329317 235.061949,54.8837308 222.357963,56.8834323 C217.299894,57.7068388 208.712941,63.2354254 205.066426,71.9400084 C199.773099,84.996883 202.008059,94.6425021 193.068217,100.288718 Z M87.4369254,67.1171989 C82.7317454,64.9998679 77.7913063,57.0010618 75.9092343,53.8250653 C81.2025619,48.6493673 79.0852308,40.0624137 76.0268638,35.3572337 C73.0861263,30.6520536 69.4396118,31.9459782 65.5578383,27.5936866 C61.5584352,23.2413951 67.0870218,11.948963 72.1450903,20.6535461 C91.0834399,53.2369178 103.552167,39.7095252 118.961632,37.7098237 C133.782949,35.8277517 146.957453,43.9441872 150.956856,21.0064346 C151.662633,17.2422906 155.309147,16.4188841 155.662036,22.5356181 C156.014924,28.7699816 158.367514,43.8265577 166.48395,45.7086297 C174.600385,47.7083313 181.187638,43.8265577 183.06971,41.7092267 C184.951782,39.5918957 186.010447,39.8271547 186.833854,45.2381117 C187.65726,50.5314393 189.774591,57.9420978 201.184653,49.7080328 C224.592923,33.0046437 217.888042,26.5350211 227.063143,22.1827296 C232.238841,19.7125101 240.472906,27.7113161 228.592326,33.7104207 C211.653678,42.2973742 209.889236,52.8840293 199.184951,59.5889108 C181.187638,70.8813429 186.716224,60.0594288 157.779367,55.9423963 C146.604564,54.4132128 143.075679,66.7643104 134.371096,63.2354254 C114.491711,55.0013603 100.4938,56.6481733 87.4369254,67.1171989 Z M150.133449,6.77326499 C150.839226,11.713704 151.662633,11.5960745 153.427075,11.948963 C155.191518,12.419481 157.426478,9.59637301 157.426478,7.00852399 C157.544108,4.30304547 156.250183,2.65623246 153.662334,2.77386196 C150.956856,2.89149147 150.01582,4.18541597 150.133449,6.77326499 Z M237.17928,15.5954775 C239.296611,17.5951791 244.942827,16.3012546 246.236751,14.772071 C249.648007,11.007927 249.765636,8.7729665 248.001194,6.18511749 C246.236751,3.71489797 242.590237,4.06778647 238.943722,6.77326499 C235.297208,9.47874351 236.002985,14.536812 237.17928,15.5954775 Z M235.650096,40.5329317 C233.885654,42.8855217 233.768024,44.6499642 235.061949,45.9438887 C236.473503,47.3554428 239.296611,48.5317378 241.296312,47.0025543 C243.296014,45.3557412 243.296014,43.0031512 241.649201,41.0034497 C239.884758,38.8861187 237.532168,38.8861187 235.650096,40.5329317 Z M57.0885142,11.1255565 C59.7939927,11.948963 61.0879172,14.536812 63.3228777,11.5960745 C64.4991727,10.1845205 64.6168022,8.184819 63.0876187,6.06748799 C62.1465827,4.77356348 57.6766617,3.83252747 55.7945897,5.71459948 C53.9125177,7.5966715 55.6769602,10.6550385 57.0885142,11.1255565 Z M1.92027833,9.47874351 C6.86071737,12.5371105 10.0367139,17.1246611 13.8008579,13.0076285 C15.0947824,11.5960745 16.6239659,9.12585501 13.9184874,4.18541597 C11.9187859,0.53890145 5.44916336,-0.87265256 3.21420284,0.53890145 C0.861612826,1.83282596 -1.96149519,7.12615349 1.92027833,9.47874351 Z M47.4428951,32.8870142 C48.9720786,34.5338272 51.6775572,34.4161977 53.3243702,33.4751617 C54.8535537,32.5341257 54.6182947,30.0639061 53.0891112,27.9465751 C52.1480752,26.6526506 49.3249671,25.9468736 47.4428951,27.9465751 C45.5608231,29.9462766 46.3842296,31.7107192 47.4428951,32.8870142 Z" fill="#41BF47" fill-rule="nonzero"></path>
    </g>
</svg>

<svg preserveAspectRatio="xMidYMid" viewBox="0 0 256 248" xmlns="http://www.w3.org/2000/svg">
  <path fill="#41BF47" d="m113.668 162.397-13.527 3.764c1.176 3.411 2.117 9.528 2.117 17.762v40.465h15.174V181.57c2.824-3.412 5.882-5.058 9.176-5.058 1.646 0 2.94.353 4.352 1.176l4.117-13.998c-2.353-1.059-3.411-1.294-5.646-1.294-1.647 0-3.647.353-4.94.941-2.824 1.412-6.353 4.588-8.588 7.646 0-3.411-.823-6.117-2.235-8.587ZM61.441 142.4h-1.647v81.87h15.762v-36.23h19.88v-13.527h-19.88v-18.82h24.82l.941-7.176a250.305 250.305 0 0 1-39.876-6.117Zm-36.818 92.81 7.293 8.47c7.058-2.824 15.88-9.176 18.232-19.292.824-3.294 1.059-5.411 1.059-16.115v-65.755h-15.88v67.519c0 8.822-.353 12.116-1.53 15.174-1.528 3.412-5.175 7.41-9.174 9.999Zm143.155-41.523c0 14.35-2.823 20.467-9.293 20.467-2.94 0-6.234-1.647-7.646-4.94-1.176-3.059-1.882-8.234-1.882-15.292 0-6 .588-10.234 1.53-13.528 1.176-3.764 4.116-6.116 7.763-6.116 2.705 0 5.058 1.176 6.47 3.176 2.117 2.823 3.058 8.116 3.058 16.233Zm9.293 23.525c4.94-5.881 7.175-13.056 7.175-23.408 0-9.763-2-16.468-6.587-22.114-4.94-6.117-11.293-9.058-19.527-9.058-15.527 0-25.878 12.587-25.878 31.643s10.234 31.29 25.878 31.29c8.822.117 14.586-3.177 18.939-8.353Zm43.052-33.877c0 5.529-3.294 8.587-9.175 8.587-5.293 0-8.822-2.47-8.822-8.587 0-5.646 3.293-8.94 8.94-8.94 5.646 0 9.057 3.294 9.057 8.94Zm26.702-12.94-6.234-9.998c-3.53 3.294-7.764 5.176-11.881 5.176-1.882 0-2.94-.235-7.058-1.294-4.117-1.176-7.058-1.529-10.351-1.529-14.704 0-24.232 7.999-24.232 20.468 0 8.94 4 14.586 12.351 16.82-3.411.824-7.058 2.588-8.704 4.588-1.177 1.412-1.765 3.294-1.765 5.529 0 1.882.47 3.529 1.176 4.94.824 1.294 1.883 2.353 3.294 2.94 2.706 1.06 7.058 1.765 13.763 1.883 3.529 0 5.646.118 6.352.118 4.117.235 6.234.94 7.88 1.764 1.53.941 2.706 3.058 2.706 5.41 0 2.354-1.411 4.706-3.646 6.118-2 1.411-5.293 2-9.528 2-6.94 0-10.822-2.588-10.822-7.411 0-2.118.235-2.588.706-3.882h-13.88c-.589 1.176-1.294 2.823-1.294 6.117 0 4.117 1.529 7.646 4.705 10.704 5.175 5.058 13.645 6.47 21.761 6.47 8.94 0 17.645-2.118 22.703-7.764 3.176-3.529 4.587-7.41 4.587-12.469 0-5.41-1.529-9.528-4.94-12.939-4-3.882-8.587-5.293-17.41-5.41l-8.116-.119c-1.529 0-2.47-.588-2.47-1.411 0-1.647 2.117-3.058 6-4.94 1.175.117 1.528.117 2.234.117 12.234 0 21.173-7.528 21.173-17.997 0-4-1.176-7.058-3.41-9.881 1.881.235 2.47.353 3.88.353 4 0 7.176-1.294 10.47-4.47ZM57.44 71.236C38.621 75.821 25.8 84.878 25.8 95.23c0 6.47 4.94 12.35 13.057 16.938-2.47-3.881-3.764-8.116-3.764-12.35.117-10.705 8.47-20.704 22.35-28.585ZM256 111.815c0-6.822-4.235-13.056-11.292-18.232.588 2.117 1.058 4.234 1.058 6.352 0 19.409-27.172 36.112-65.755 43.052 4.353.47 8.823.706 13.528.706 34.465-.118 62.461-14.35 62.461-31.878Zm-22.232-10.586c0-7.176-6.117-13.763-16.586-19.174 2.47 2.94 3.764 6.117 3.764 9.41 0 17.292-36.7 31.29-82.105 31.29-45.287 0-82.105-13.998-82.105-31.29 0-2.234.588-4.352 1.764-6.351-7.293 4.822-11.41 10.35-11.41 16.232 0 18.703 41.758 33.878 93.28 33.878s93.398-15.41 93.398-33.995Zm-40.7-.941c-19.056 12.233-77.635 16.938-102.808 1.176-19.762-12.35-12.94-31.994-69.519-75.047-7.41-5.646 1.412-11.645 6.94-7.763 5.529 3.882.47 4.823 11.645 15.997 22.585 22.585 22.35 2.235 25.879 9.999C72.733 60.765 89.2 76.998 89.2 76.998c16.586 10.822 29.76 13.175 54.228-3.411 15.527-10.47 9.175 16.703 47.169-2.94 13.88-7.176 13.292-2.354 27.408-21.998 5.881-8.116 17.056 6.235 4.352 8.234-5.058.824-13.645 6.352-17.292 15.057-5.293 13.057-3.058 22.703-11.998 28.349ZM87.437 67.117C82.732 65 77.79 57.001 75.909 53.825c5.294-5.176 3.176-13.763.118-18.468-2.94-4.705-6.587-3.411-10.47-7.763-3.999-4.353 1.53-15.645 6.588-6.94 18.938 32.583 31.407 19.056 46.817 17.056 14.82-1.882 27.995 6.234 31.995-16.704.706-3.764 4.352-4.587 4.705 1.53.353 6.234 2.706 21.29 10.822 23.173 8.116 2 14.704-1.882 16.586-4 1.882-2.117 2.94-1.882 3.764 3.53.823 5.292 2.94 12.703 14.35 4.469 23.409-16.703 16.704-23.173 25.88-27.525 5.175-2.47 13.409 5.528 1.528 11.527-16.938 8.587-18.703 19.174-29.407 25.879-17.997 11.292-12.469.47-41.406-3.647-11.174-1.529-14.703 10.822-23.408 7.293-19.88-8.234-33.877-6.587-46.934 3.882Zm62.696-60.344c.706 4.94 1.53 4.823 3.294 5.176 1.765.47 4-2.353 4-4.94.117-2.706-1.177-4.353-3.765-4.235-2.705.117-3.646 1.411-3.529 4Zm87.046 8.822c2.118 2 7.764.706 9.058-.823 3.411-3.764 3.529-5.999 1.764-8.587-1.764-2.47-5.41-2.117-9.057.588-3.647 2.706-2.941 7.764-1.765 8.822Zm-1.529 24.938c-1.764 2.353-1.882 4.117-.588 5.41 1.412 1.412 4.235 2.589 6.234 1.06 2-1.647 2-4 .353-6-1.764-2.117-4.117-2.117-5.999-.47ZM57.09 11.126c2.705.823 3.999 3.41 6.234.47 1.176-1.411 1.294-3.411-.235-5.529-.941-1.293-5.411-2.234-7.293-.352-1.882 1.882-.118 4.94 1.294 5.41ZM1.92 9.479c4.94 3.058 8.117 7.646 11.88 3.529 1.295-1.412 2.824-3.882.118-8.823C11.918.54 5.45-.873 3.214.54.862 1.833-1.96 7.126 1.92 9.479Zm45.523 23.408c1.53 1.647 4.235 1.53 5.881.588 1.53-.94 1.294-3.411-.235-5.528-.94-1.294-3.764-2-5.646 0-1.882 2-1.059 3.764 0 4.94Z"/>
</svg>
